icons/modern/face-with-medical-mask.svg

<svg width="32" height="32" viewBox="0 0 32 32" fill="none" xmlns="http://www.w3.org/2000/svg">
<g clip-path="url(#clip0_31_96)">
<path d="M15.9989 29.9978C25.3333 29.9978 29.9978 23.7303 29.9978 15.9989C29.9978 8.26751 25.3333 2 15.9989 2C6.66443 2 2 8.26751 2 15.9989C2 23.7303 6.66443 29.9978 15.9989 29.9978Z" fill="url(#paint0_radial_31_96)"/>
<path d="M15.9989 29.9978C25.3333 29.9978 29.9978 23.7303 29.9978 15.9989C29.9978 8.26751 25.3333 2 15.9989 2C6.66443 2 2 8.26751 2 15.9989C2 23.7303 6.66443 29.9978 15.9989 29.9978Z" fill="url(#paint1_radial_31_96)"/>
<path d="M15.9989 29.9978C25.3333 29.9978 29.9978 23.7303 29.9978 15.9989C29.9978 8.26751 25.3333 2 15.9989 2C6.66443 2 2 8.26751 2 15.9989C2 23.7303 6.66443 29.9978 15.9989 29.9978Z" fill="url(#paint2_radial_31_96)"/>
<path d="M15.9989 29.9978C25.3333 29.9978 29.9978 23.7303 29.9978 15.9989C29.9978 8.26751 25.3333 2 15.9989 2C6.66443 2 2 8.26751 2 15.9989C2 23.7303 6.66443 29.9978 15.9989 29.9978Z" fill="url(#paint3_radial_31_96)" fill-opacity="0.6"/>
<path d="M15.9989 29.9978C25.3333 29.9978 29.9978 23.7303 29.9978 15.9989C29.9978 8.26751 25.3333 2 15.9989 2C6.66443 2 2 8.26751 2 15.9989C2 23.7303 6.66443 29.9978 15.9989 29.9978Z" fill="url(#paint4_radial_31_96)"/>
<path d="M15.9989 29.9978C25.3333 29.9978 29.9978 23.7303 29.9978 15.9989C29.9978 8.26751 25.3333 2 15.9989 2C6.66443 2 2 8.26751 2 15.9989C2 23.7303 6.66443 29.9978 15.9989 29.9978Z" fill="url(#paint5_radial_31_96)"/>
<path d="M15.9989 29.9978C25.3333 29.9978 29.9978 23.7303 29.9978 15.9989C29.9978 8.26751 25.3333 2 15.9989 2C6.66443 2 2 8.26751 2 15.9989C2 23.7303 6.66443 29.9978 15.9989 29.9978Z" fill="url(#paint6_radial_31_96)"/>
<path d="M15.9989 29.9978C25.3333 29.9978 29.9978 23.7303 29.9978 15.9989C29.9978 8.26751 25.3333 2 15.9989 2C6.66443 2 2 8.26751 2 15.9989C2 23.7303 6.66443 29.9978 15.9989 29.9978Z" fill="url(#paint7_radial_31_96)"/>
<path opacity="0.5" d="M7.5 23C11.0899 23 14 20.0899 14 16.5C14 12.9101 11.0899 10 7.5 10C3.91015 10 1 12.9101 1 16.5C1 20.0899 3.91015 23 7.5 23Z" fill="url(#paint8_radial_31_96)"/>
<path opacity="0.5" d="M24.5 23C28.0899 23 31 20.0899 31 16.5C31 12.9101 28.0899 10 24.5 10C20.9101 10 18 12.9101 18 16.5C18 20.0899 20.9101 23 24.5 23Z" fill="url(#paint9_radial_31_96)"/>
<g opacity="0.5" filter="url(#filter0_f_31_96)">
<path d="M7.5 12.5C7.5 12.5 7.75 10.5 10 10.5C12.25 10.5 12.5 12.5 12.5 12.5" stroke="#9A4609" stroke-width="2" stroke-linecap="round"/>
</g>
<g opacity="0.5" filter="url(#filter1_f_31_96)">
<path d="M18.5 12.5C18.5 12.5 19 10.5 21 10.5C23 10.5 23.5 12.5 23.5 12.5" stroke="#9A4609" stroke-width="2" stroke-linecap="round"/>
</g>
<path d="M8 12C8 12 8.25 10 10.5 10C12.75 10 13 12 13 12" stroke="#43273B" stroke-width="2" stroke-linecap="round" stroke-linejoin="round"/>
<g opacity="0.26" filter="url(#filter2_f_31_96)">
<path d="M8.25 11.75C8.25 11.75 8.5 9.75 10.75 9.75C13 9.75 13.25 11.75 13.25 11.75" stroke="white" stroke-width="0.75" stroke-linecap="round" stroke-linejoin="round"/>
</g>
<path d="M19 12C19 12 19.5 10 21.5 10C23.5 10 24 12 24 12" stroke="#43273B" stroke-width="2" stroke-linecap="round" stroke-linejoin="round"/>
<g opacity="0.26" filter="url(#filter3_f_31_96)">
<path d="M19.25 11.75C19.25 11.75 19.5 9.75 21.75 9.75C24 9.75 24.25 11.75 24.25 11.75" stroke="white" stroke-width="0.75" stroke-linecap="round" stroke-linejoin="round"/>
</g>
<path d="M6.5 9.5C6.83333 8.5 8.1 6.5 10.5 6.5" stroke="url(#paint10_linear_31_96)" stroke-linecap="round" stroke-linejoin="round"/>
<path d="M25.5 9.5C25.1667 8.5 23.9 6.5 21.5 6.5" stroke="url(#paint11_linear_31_96)" stroke-linecap="round" stroke-linejoin="round"/>
<path d="M8 17.5616C8 16.6438 8.62459 15.8439 9.51493 15.6213L14.0597 14.4851C15.3336 14.1666 16.6664 14.1666 17.9403 14.4851L22.4851 15.6213C23.3754 15.8439 24 16.6438 24 17.5616V23.614C24 24.4477 23.4829 25.1939 22.7022 25.4867L21.618 25.8933C17.9958 27.2516 14.0042 27.2516 10.382 25.8933L9.29775 25.4867C8.51715 25.1939 8 24.4477 8 23.614V17.5616Z" fill="url(#paint12_linear_31_96)"/>
<path fill-rule="evenodd" clip-rule="evenodd" d="M3.52311 23H9.00006V22H3.07996C3.21501 22.3412 3.36272 22.6747 3.52311 23Z" fill="url(#paint13_linear_31_96)"/>
<path fill-rule="evenodd" clip-rule="evenodd" d="M2.16711 13.5233L8.22965 17.4206L8.77041 16.5794L2.35143 12.4529C2.2787 12.8045 2.21726 13.1615 2.16711 13.5233Z" fill="url(#paint14_linear_31_96)"/>
<path fill-rule="evenodd" clip-rule="evenodd" d="M29.6466 12.4542L23.2296 16.5794L23.7704 17.4206L29.8309 13.5245C29.7808 13.1627 29.7193 12.8058 29.6466 12.4542Z" fill="url(#paint15_linear_31_96)"/>
<path fill-rule="evenodd" clip-rule="evenodd" d="M28.9179 22H24V23H28.4747C28.6351 22.6747 28.7828 22.3412 28.9179 22Z" fill="url(#paint16_linear_31_96)"/>
</g>
<defs>
<filter id="filter0_f_31_96" x="4.99988" y="8" width="10.0002" height="7.00012" filterUnits="userSpaceOnUse" color-interpolation-filters="sRGB">
<feFlood flood-opacity="0" result="BackgroundImageFix"/>
<feBlend mode="normal" in="SourceGraphic" in2="BackgroundImageFix" result="shape"/>
<feGaussianBlur stdDeviation="0.75" result="effect1_foregroundBlur_31_96"/>
</filter>
<filter id="filter1_f_31_96" x="15.9998" y="8" width="10.0005" height="7.00024" filterUnits="userSpaceOnUse" color-interpolation-filters="sRGB">
<feFlood flood-opacity="0" result="BackgroundImageFix"/>
<feBlend mode="normal" in="SourceGraphic" in2="BackgroundImageFix" result="shape"/>
<feGaussianBlur stdDeviation="0.75" result="effect1_foregroundBlur_31_96"/>
</filter>
<filter id="filter2_f_31_96" x="6.375" y="7.875" width="8.75" height="5.75006" filterUnits="userSpaceOnUse" color-interpolation-filters="sRGB">
<feFlood flood-opacity="0" result="BackgroundImageFix"/>
<feBlend mode="normal" in="SourceGraphic" in2="BackgroundImageFix" result="shape"/>
<feGaussianBlur stdDeviation="0.75" result="effect1_foregroundBlur_31_96"/>
</filter>
<filter id="filter3_f_31_96" x="17.375" y="7.875" width="8.75" height="5.75006" filterUnits="userSpaceOnUse" color-interpolation-filters="sRGB">
<feFlood flood-opacity="0" result="BackgroundImageFix"/>
<feBlend mode="normal" in="SourceGraphic" in2="BackgroundImageFix" result="shape"/>
<feGaussianBlur stdDeviation="0.75" result="effect1_foregroundBlur_31_96"/>
</filter>
<radialGradient id="paint0_radial_31_96" cx="0" cy="0" r="1" gradientUnits="userSpaceOnUse" gradientTransform="translate(25.5 9) rotate(132.839) scale(37.5033)">
<stop stop-color="#FFF478"/>
<stop offset="0.474827" stop-color="#FFB02E"/>
<stop offset="1" stop-color="#F70A8D"/>
</radialGradient>
<radialGradient id="paint1_radial_31_96" cx="0" cy="0" r="1" gradientUnits="userSpaceOnUse" gradientTransform="translate(25.5 9) rotate(131.878) scale(38.9487)">
<stop stop-color="#FFF478"/>
<stop offset="0.474827" stop-color="#FFB02E"/>
<stop offset="1" stop-color="#F70A8D"/>
</radialGradient>
<radialGradient id="paint2_radial_31_96" cx="0" cy="0" r="1" gradientUnits="userSpaceOnUse" gradientTransform="translate(16 12.5) rotate(101.31) scale(17.8466 22.8581)">
<stop offset="0.787821" stop-color="#F59639" stop-opacity="0"/>
<stop offset="0.972509" stop-color="#FF7DCE"/>
</radialGradient>
<radialGradient id="paint3_radial_31_96" cx="0" cy="0" r="1" gradientUnits="userSpaceOnUse" gradientTransform="translate(18 14) rotate(135) scale(41.0122)">
<stop offset="0.314853" stop-opacity="0"/>
<stop offset="1"/>
</radialGradient>
<radialGradient id="paint4_radial_31_96" cx="0" cy="0" r="1" gradientUnits="userSpaceOnUse" gradientTransform="translate(16 17) rotate(77.692) scale(28.1469)">
<stop offset="0.507903" stop-color="#7D6133" stop-opacity="0"/>
<stop offset="1" stop-color="#715B32"/>
</radialGradient>
<radialGradient id="paint5_radial_31_96" cx="0" cy="0" r="1" gradientUnits="userSpaceOnUse" gradientTransform="translate(16.5 16.5) rotate(55.7131) scale(13.3135 9.65032)">
<stop stop-color="#FFB849"/>
<stop offset="1" stop-color="#FFB847" stop-opacity="0"/>
</radialGradient>
<radialGradient id="paint6_radial_31_96" cx="0" cy="0" r="1" gradientUnits="userSpaceOnUse" gradientTransform="translate(20.5 18) rotate(9.86581) scale(11.6726)">
<stop stop-color="#FFA64B"/>
<stop offset="0.900412" stop-color="#FFAE46" stop-opacity="0"/>
</radialGradient>
<radialGradient id="paint7_radial_31_96" cx="0" cy="0" r="1" gradientUnits="userSpaceOnUse" gradientTransform="translate(17.5 15) rotate(43.9708) scale(59.0529)">
<stop offset="0.185425" stop-opacity="0"/>
<stop offset="1" stop-opacity="0.4"/>
</radialGradient>
<radialGradient id="paint8_radial_31_96" cx="0" cy="0" r="1" gradientUnits="userSpaceOnUse" gradientTransform="translate(7.50513 16.5012) scale(6.49487)">
<stop stop-color="#F70A8D" stop-opacity="0.59"/>
<stop offset="1" stop-color="#FF6DC6" stop-opacity="0"/>
</radialGradient>
<radialGradient id="paint9_radial_31_96" cx="0" cy="0" r="1" gradientUnits="userSpaceOnUse" gradientTransform="translate(24.5051 16.5012) scale(6.49487)">
<stop stop-color="#F70A8D" stop-opacity="0.59"/>
<stop offset="1" stop-color="#FF6DC6" stop-opacity="0"/>
</radialGradient>
<linearGradient id="paint10_linear_31_96" x1="6.83333" y1="10.4" x2="6.83333" y2="8.6" gradientUnits="userSpaceOnUse">
<stop offset="0.0299084" stop-color="#524049"/>
<stop offset="1" stop-color="#4A2C42"/>
</linearGradient>
<linearGradient id="paint11_linear_31_96" x1="25.1667" y1="10.4" x2="25.1667" y2="8.6" gradientUnits="userSpaceOnUse">
<stop offset="0.0299084" stop-color="#524049"/>
<stop offset="1" stop-color="#4A2C42"/>
</linearGradient>
<linearGradient id="paint12_linear_31_96" x1="8.5" y1="23.5" x2="24" y2="17" gradientUnits="userSpaceOnUse">
<stop stop-color="#DFB6FF"/>
<stop offset="1" stop-color="#F3EFF9"/>
</linearGradient>
<linearGradient id="paint13_linear_31_96" x1="3" y1="22.5" x2="8" y2="22.5" gradientUnits="userSpaceOnUse">
<stop stop-color="#BB8FC3"/>
<stop offset="1" stop-color="#E1BBFF"/>
</linearGradient>
<linearGradient id="paint14_linear_31_96" x1="1.5" y1="12.5" x2="8.5" y2="17" gradientUnits="userSpaceOnUse">
<stop stop-color="#D5A4A9"/>
<stop offset="1" stop-color="#E3C1FF"/>
</linearGradient>
<linearGradient id="paint15_linear_31_96" x1="24" y1="16.5" x2="30.5" y2="12.5" gradientUnits="userSpaceOnUse">
<stop stop-color="#F3EDFA"/>
<stop offset="1" stop-color="#D7D7D7"/>
</linearGradient>
<linearGradient id="paint16_linear_31_96" x1="30" y1="22.5" x2="25" y2="22.5" gradientUnits="userSpaceOnUse">
<stop stop-color="#E1CCF6"/>
<stop offset="1" stop-color="#F1E7FA"/>
</linearGradient>
<clipPath id="clip0_31_96">
<rect width="32" height="32" fill="white"/>
</clipPath>
</defs>
</svg>

<svg width="32" height="32" fill="none" xmlns="http://www.w3.org/2000/svg"><g clip-path="url(#a)"><path d="M15.999 29.998c9.334 0 13.999-6.268 13.999-14 0-7.73-4.665-13.998-14-13.998C6.665 2 2 8.268 2 15.999c0 7.731 4.664 13.999 13.999 13.999Z" fill="url(#b)"/><path d="M15.999 29.998c9.334 0 13.999-6.268 13.999-14 0-7.73-4.665-13.998-14-13.998C6.665 2 2 8.268 2 15.999c0 7.731 4.664 13.999 13.999 13.999Z" fill="url(#c)"/><path d="M15.999 29.998c9.334 0 13.999-6.268 13.999-14 0-7.73-4.665-13.998-14-13.998C6.665 2 2 8.268 2 15.999c0 7.731 4.664 13.999 13.999 13.999Z" fill="url(#d)"/><path d="M15.999 29.998c9.334 0 13.999-6.268 13.999-14 0-7.73-4.665-13.998-14-13.998C6.665 2 2 8.268 2 15.999c0 7.731 4.664 13.999 13.999 13.999Z" fill="url(#e)" fill-opacity=".6"/><path d="M15.999 29.998c9.334 0 13.999-6.268 13.999-14 0-7.73-4.665-13.998-14-13.998C6.665 2 2 8.268 2 15.999c0 7.731 4.664 13.999 13.999 13.999Z" fill="url(#f)"/><path d="M15.999 29.998c9.334 0 13.999-6.268 13.999-14 0-7.73-4.665-13.998-14-13.998C6.665 2 2 8.268 2 15.999c0 7.731 4.664 13.999 13.999 13.999Z" fill="url(#g)"/><path d="M15.999 29.998c9.334 0 13.999-6.268 13.999-14 0-7.73-4.665-13.998-14-13.998C6.665 2 2 8.268 2 15.999c0 7.731 4.664 13.999 13.999 13.999Z" fill="url(#h)"/><path d="M15.999 29.998c9.334 0 13.999-6.268 13.999-14 0-7.73-4.665-13.998-14-13.998C6.665 2 2 8.268 2 15.999c0 7.731 4.664 13.999 13.999 13.999Z" fill="url(#i)"/><path opacity=".5" d="M7.5 23a6.5 6.5 0 1 0 0-13 6.5 6.5 0 0 0 0 13Z" fill="url(#j)"/><path opacity=".5" d="M24.5 23a6.5 6.5 0 1 0 0-13 6.5 6.5 0 0 0 0 13Z" fill="url(#k)"/><g opacity=".5" filter="url(#l)"><path d="M7.5 12.5s.25-2 2.5-2 2.5 2 2.5 2" stroke="#9A4609" stroke-width="2" stroke-linecap="round"/></g><g opacity=".5" filter="url(#m)"><path d="M18.5 12.5s.5-2 2.5-2 2.5 2 2.5 2" stroke="#9A4609" stroke-width="2" stroke-linecap="round"/></g><path d="M8 12s.25-2 2.5-2 2.5 2 2.5 2" stroke="#43273B" stroke-width="2" stroke-linecap="round" stroke-linejoin="round"/><g opacity=".26" filter="url(#n)"><path d="M8.25 11.75s.25-2 2.5-2 2.5 2 2.5 2" stroke="#fff" stroke-width=".75" stroke-linecap="round" stroke-linejoin="round"/></g><path d="M19 12s.5-2 2.5-2 2.5 2 2.5 2" stroke="#43273B" stroke-width="2" stroke-linecap="round" stroke-linejoin="round"/><g opacity=".26" filter="url(#o)"><path d="M19.25 11.75s.25-2 2.5-2 2.5 2 2.5 2" stroke="#fff" stroke-width=".75" stroke-linecap="round" stroke-linejoin="round"/></g><path d="M6.5 9.5c.333-1 1.6-3 4-3" stroke="url(#p)" stroke-linecap="round" stroke-linejoin="round"/><path d="M25.5 9.5c-.333-1-1.6-3-4-3" stroke="url(#q)" stroke-linecap="round" stroke-linejoin="round"/><path d="M8 17.562a2 2 0 0 1 1.515-1.94l4.545-1.137a8 8 0 0 1 3.88 0l4.545 1.136A2 2 0 0 1 24 17.561v6.053a2 2 0 0 1-1.298 1.873l-1.084.406a16 16 0 0 1-11.236 0l-1.084-.406A2 2 0 0 1 8 23.614v-6.052Z" fill="url(#r)"/><path fill-rule="evenodd" clip-rule="evenodd" d="M3.523 23H9v-1H3.08c.135.341.283.675.443 1Z" fill="url(#s)"/><path fill-rule="evenodd" clip-rule="evenodd" d="m2.167 13.523 6.063 3.898.54-.842-6.419-4.126a16.4 16.4 0 0 0-.184 1.07Z" fill="url(#t)"/><path fill-rule="evenodd" clip-rule="evenodd" d="M29.647 12.454 23.23 16.58l.54.842 6.06-3.896c-.05-.362-.11-.72-.183-1.07Z" fill="url(#u)"/><path fill-rule="evenodd" clip-rule="evenodd" d="M28.918 22H24v1h4.475c.16-.325.308-.659.443-1Z" fill="url(#v)"/></g><defs><radialGradient id="b" cx="0" cy="0" r="1" gradientUnits="userSpaceOnUse" gradientTransform="rotate(132.839 10.786 10.065) scale(37.5033)"><stop stop-color="#FFF478"/><stop offset=".475" stop-color="#FFB02E"/><stop offset="1" stop-color="#F70A8D"/></radialGradient><radialGradient id="c" cx="0" cy="0" r="1" gradientUnits="userSpaceOnUse" gradientTransform="rotate(131.878 10.74 10.193) scale(38.9487)"><stop stop-color="#FFF478"/><stop offset=".475" stop-color="#FFB02E"/><stop offset="1" stop-color="#F70A8D"/></radialGradient><radialGradient id="d" cx="0" cy="0" r="1" gradientUnits="userSpaceOnUse" gradientTransform="rotate(101.31 2.876 12.808) scale(17.8466 22.8581)"><stop offset=".788" stop-color="#F59639" stop-opacity="0"/><stop offset=".973" stop-color="#FF7DCE"/></radialGradient><radialGradient id="e" cx="0" cy="0" r="1" gradientUnits="userSpaceOnUse" gradientTransform="matrix(-29 29 -29 -29 18 14)"><stop offset=".315" stop-opacity="0"/><stop offset="1"/></radialGradient><radialGradient id="f" cx="0" cy="0" r="1" gradientUnits="userSpaceOnUse" gradientTransform="rotate(77.692 -2.555 18.434) scale(28.1469)"><stop offset=".508" stop-color="#7D6133" stop-opacity="0"/><stop offset="1" stop-color="#715B32"/></radialGradient><radialGradient id="g" cx="0" cy="0" r="1" gradientUnits="userSpaceOnUse" gradientTransform="rotate(55.713 -7.36 23.86) scale(13.3135 9.65032)"><stop stop-color="#FFB849"/><stop offset="1" stop-color="#FFB847" stop-opacity="0"/></radialGradient><radialGradient id="h" cx="0" cy="0" r="1" gradientUnits="userSpaceOnUse" gradientTransform="matrix(11.49998 2 -2 11.49998 20.5 18)"><stop stop-color="#FFA64B"/><stop offset=".9" stop-color="#FFAE46" stop-opacity="0"/></radialGradient><radialGradient id="i" cx="0" cy="0" r="1" gradientUnits="userSpaceOnUse" gradientTransform="rotate(43.971 -9.827 29.173) scale(59.0529)"><stop offset=".185" stop-opacity="0"/><stop offset="1" stop-opacity=".4"/></radialGradient><radialGradient id="j" cx="0" cy="0" r="1" gradientUnits="userSpaceOnUse" gradientTransform="translate(7.505 16.501) scale(6.49487)"><stop stop-color="#F70A8D" stop-opacity=".59"/><stop offset="1" stop-color="#FF6DC6" stop-opacity="0"/></radialGradient><radialGradient id="k" cx="0" cy="0" r="1" gradientUnits="userSpaceOnUse" gradientTransform="translate(24.505 16.501) scale(6.49487)"><stop stop-color="#F70A8D" stop-opacity=".59"/><stop offset="1" stop-color="#FF6DC6" stop-opacity="0"/></radialGradient><linearGradient id="p" x1="6.833" y1="10.4" x2="6.833" y2="8.6" gradientUnits="userSpaceOnUse"><stop offset=".03" stop-color="#524049"/><stop offset="1" stop-color="#4A2C42"/></linearGradient><linearGradient id="q" x1="25.167" y1="10.4" x2="25.167" y2="8.6" gradientUnits="userSpaceOnUse"><stop offset=".03" stop-color="#524049"/><stop offset="1" stop-color="#4A2C42"/></linearGradient><linearGradient id="r" x1="8.5" y1="23.5" x2="24" y2="17" gradientUnits="userSpaceOnUse"><stop stop-color="#DFB6FF"/><stop offset="1" stop-color="#F3EFF9"/></linearGradient><linearGradient id="s" x1="3" y1="22.5" x2="8" y2="22.5" gradientUnits="userSpaceOnUse"><stop stop-color="#BB8FC3"/><stop offset="1" stop-color="#E1BBFF"/></linearGradient><linearGradient id="t" x1="1.5" y1="12.5" x2="8.5" y2="17" gradientUnits="userSpaceOnUse"><stop stop-color="#D5A4A9"/><stop offset="1" stop-color="#E3C1FF"/></linearGradient><linearGradient id="u" x1="24" y1="16.5" x2="30.5" y2="12.5" gradientUnits="userSpaceOnUse"><stop stop-color="#F3EDFA"/><stop offset="1" stop-color="#D7D7D7"/></linearGradient><linearGradient id="v" x1="30" y1="22.5" x2="25" y2="22.5" gradientUnits="userSpaceOnUse"><stop stop-color="#E1CCF6"/><stop offset="1" stop-color="#F1E7FA"/></linearGradient><filter id="l" x="5" y="8" width="10" height="7" filterUnits="userSpaceOnUse" color-interpolation-filters="sRGB"><feFlood flood-opacity="0" result="BackgroundImageFix"/><feBlend in="SourceGraphic" in2="BackgroundImageFix" result="shape"/><feGaussianBlur stdDeviation=".75" result="effect1_foregroundBlur_31_96"/></filter><filter id="m" x="16" y="8" width="10.001" height="7" filterUnits="userSpaceOnUse" color-interpolation-filters="sRGB"><feFlood flood-opacity="0" result="BackgroundImageFix"/><feBlend in="SourceGraphic" in2="BackgroundImageFix" result="shape"/><feGaussianBlur stdDeviation=".75" result="effect1_foregroundBlur_31_96"/></filter><filter id="n" x="6.375" y="7.875" width="8.75" height="5.75" filterUnits="userSpaceOnUse" color-interpolation-filters="sRGB"><feFlood flood-opacity="0" result="BackgroundImageFix"/><feBlend in="SourceGraphic" in2="BackgroundImageFix" result="shape"/><feGaussianBlur stdDeviation=".75" result="effect1_foregroundBlur_31_96"/></filter><filter id="o" x="17.375" y="7.875" width="8.75" height="5.75" filterUnits="userSpaceOnUse" color-interpolation-filters="sRGB"><feFlood flood-opacity="0" result="BackgroundImageFix"/><feBlend in="SourceGraphic" in2="BackgroundImageFix" result="shape"/><feGaussianBlur stdDeviation=".75" result="effect1_foregroundBlur_31_96"/></filter><clipPath id="a"><path fill="#fff" d="M0 0h32v32H0z"/></clipPath></defs></svg>
